icons/Checkmark.svg

<svg width="24" height="24" viewBox="0 0 24 24" fill="none" xmlns="http://www.w3.org/2000/svg">
<path fill-rule="evenodd" clip-rule="evenodd" d="M18.485 8.227L17.406 7.149C17.3106 7.0538 17.1813 7.00034 17.0465 7.00034C16.9117 7.00034 16.7824 7.0538 16.687 7.149L10.22 13.617L7.346 10.742C7.25057 10.6468 7.12129 10.5933 6.9865 10.5933C6.8517 10.5933 6.72242 10.6468 6.627 10.742L5.549 11.821C5.45379 11.9164 5.40033 12.0457 5.40033 12.1805C5.40033 12.3153 5.45379 12.4446 5.549 12.54L8.783 15.773L9.861 16.85C9.90811 16.8974 9.96413 16.935 10.0258 16.9606C10.0875 16.9863 10.1537 16.9995 10.2205 16.9995C10.2873 16.9995 10.3535 16.9863 10.4152 16.9606C10.4769 16.935 10.5329 16.8974 10.58 16.85L11.657 15.773L18.484 8.946C18.5792 8.85058 18.6327 8.72129 18.6327 8.5865C18.6327 8.45171 18.5792 8.32242 18.484 8.227" fill="black"/>
</svg>

<svg xmlns="http://www.w3.org/2000/svg" viewBox="0 0 24 24">
  <path d="M18.485 8.227l-1.079-1.078a.509.509 0 00-.719 0l-6.467 6.468-2.874-2.875a.51.51 0 00-.719 0l-1.078 1.079a.509.509 0 000 .719l3.234 3.233 1.078 1.077a.506.506 0 00.719 0l1.077-1.077 6.827-6.827a.509.509 0 000-.719"/>
</svg>
